rospo-newyear-dark/symbolic/status/network-wireless-hotspot-symbolic.svg

<svg height="16" width="16" xmlns="http://www.w3.org/2000/svg"><path d="m8 4.21c-1.3 0-2.42.72-3 1.79h6c-.58-1.06-1.7-1.79-3-1.79zm7 3.79h-14l7 7zm-14-2h1.5c.74-2.32 2.93-4 5.5-4s4.76 1.68 5.5 4h1.5c-.78-3.15-3.6-5.5-7-5.5s-6.22 2.35-7 5.5z" fill="#d3dae3"/></svg>

<svg xmlns="http://www.w3.org/2000/svg" width="16" height="16" version="1.1">
 <path style="fill:#d3dae3" d="M 8,4.21 C 6.7,4.21 5.58,4.93 5,6 H 11 C 10.42,4.94 9.3,4.21 8,4.21 Z M 15,8 H 1 L 8,15 Z M 1,6 H 2.5 C 3.24,3.68 5.43,2 8,2 10.57,2 12.76,3.68 13.5,6 H 15 C 14.22,2.85 11.4,0.5 8,0.5 4.6,0.5 1.78,2.85 1,6 Z"/>
</svg>
